apps/blog/src/assets/icons/calendar.svg

<svg width="1em" height="1em" viewBox="0 0 16 16" fill="none" xmlns="http://www.w3.org/2000/svg">
<g clip-path="url(#clip0_130_73)">
<path d="M12.6667 0.666667C12.6667 0.298667 12.368 0 12 0C11.632 0 11.3333 0.298667 11.3333 0.666667V2H12.6667V0.666667Z" fill="currentColor"/>
<path d="M4.66668 0.666667C4.66668 0.298667 4.36801 0 4.00001 0C3.63201 0 3.33334 0.298667 3.33334 0.666667V2H4.66668V0.666667Z" fill="currentColor"/>
<path d="M14 2.66666H2C0.895333 2.66666 0 3.56199 0 4.66666V13.3333C0 14.438 0.895333 15.3333 2 15.3333H14C15.1047 15.3333 16 14.438 16 13.3333V4.66666C16 3.56199 15.1047 2.66666 14 2.66666ZM14.6667 13.3333C14.6667 13.7013 14.368 14 14 14H2C1.632 14 1.33333 13.7013 1.33333 13.3333V5.99999H14.6667V13.3333Z" fill="currentColor"/>
<path d="M4.99999 7.33334H2.99999C2.81589 7.33334 2.66666 7.48258 2.66666 7.66668V9.00001C2.66666 9.18411 2.81589 9.33334 2.99999 9.33334H4.99999C5.18408 9.33334 5.33332 9.18411 5.33332 9.00001V7.66668C5.33332 7.48258 5.18408 7.33334 4.99999 7.33334Z" fill="currentColor"/>
<path d="M8.99999 7.33334H6.99999C6.81589 7.33334 6.66666 7.48258 6.66666 7.66668V9.00001C6.66666 9.18411 6.81589 9.33334 6.99999 9.33334H8.99999C9.18408 9.33334 9.33332 9.18411 9.33332 9.00001V7.66668C9.33332 7.48258 9.18408 7.33334 8.99999 7.33334Z" fill="currentColor"/>
<path d="M4.99999 10.6667H2.99999C2.81589 10.6667 2.66666 10.8159 2.66666 11V12.3333C2.66666 12.5174 2.81589 12.6667 2.99999 12.6667H4.99999C5.18408 12.6667 5.33332 12.5174 5.33332 12.3333V11C5.33332 10.8159 5.18408 10.6667 4.99999 10.6667Z" fill="currentColor"/>
<path d="M8.99999 10.6667H6.99999C6.81589 10.6667 6.66666 10.8159 6.66666 11V12.3333C6.66666 12.5174 6.81589 12.6667 6.99999 12.6667H8.99999C9.18408 12.6667 9.33332 12.5174 9.33332 12.3333V11C9.33332 10.8159 9.18408 10.6667 8.99999 10.6667Z" fill="currentColor"/>
<path d="M13 7.33334H11C10.8159 7.33334 10.6667 7.48258 10.6667 7.66668V9.00001C10.6667 9.18411 10.8159 9.33334 11 9.33334H13C13.1841 9.33334 13.3333 9.18411 13.3333 9.00001V7.66668C13.3333 7.48258 13.1841 7.33334 13 7.33334Z" fill="currentColor"/>
</g>
<defs>
<clipPath id="clip0_130_73">
<rect width="16" height="16" fill="currentColor"/>
</clipPath>
</defs>
</svg>

<svg xmlns="http://www.w3.org/2000/svg" fill="none" viewBox="0 0 16 16"><g fill="currentColor" clip-path="url(#a)"><path d="M12.667.667a.667.667 0 0 0-1.334 0V2h1.334zm-8 0a.667.667 0 0 0-1.334 0V2h1.334zm9.333 2H2a2 2 0 0 0-2 2v8.666a2 2 0 0 0 2 2h12a2 2 0 0 0 2-2V4.667a2 2 0 0 0-2-2m.667 10.666A.667.667 0 0 1 14 14H2a.667.667 0 0 1-.667-.667V6h13.334z"/><path d="M5 7.333H3a.333.333 0 0 0-.333.334V9c0 .184.149.333.333.333h2A.333.333 0 0 0 5.333 9V7.667A.333.333 0 0 0 5 7.333m4 0H7a.333.333 0 0 0-.333.334V9c0 .184.149.333.333.333h2A.333.333 0 0 0 9.333 9V7.667A.333.333 0 0 0 9 7.333m-4 3.334H3a.333.333 0 0 0-.333.333v1.333c0 .184.149.334.333.334h2c.184 0 .333-.15.333-.334V11A.333.333 0 0 0 5 10.667m4 0H7a.333.333 0 0 0-.333.333v1.333c0 .184.149.334.333.334h2c.184 0 .333-.15.333-.334V11A.333.333 0 0 0 9 10.667m4-3.334h-2a.333.333 0 0 0-.333.334V9c0 .184.149.333.333.333h2A.333.333 0 0 0 13.333 9V7.667A.333.333 0 0 0 13 7.333"/></g><defs><clipPath id="a"><path fill="currentColor" d="M0 0h16v16H0z"/></clipPath></defs></svg>
